material/.icons/material/cancel.svg

<svg xmlns="http://www.w3.org/2000/svg" viewBox="0 0 24 24"><path d="M12 2a10 10 0 0110 10 10 10 0 01-10 10A10 10 0 012 12 10 10 0 0112 2m0 2a8 8 0 00-8 8c0 1.85.63 3.55 1.68 4.91L16.91 5.68A8.005 8.005 0 0012 4m0 16a8 8 0 008-8c0-1.85-.63-3.55-1.68-4.91L7.09 18.32A8.005 8.005 0 0012 20z"/></svg>

<?xml version="1.0" encoding="UTF-8"?><!DOCTYPE svg PUBLIC "-//W3C//DTD SVG 1.1//EN" "http://www.w3.org/Graphics/SVG/1.1/DTD/svg11.dtd"><svg xmlns="http://www.w3.org/2000/svg" xmlns:xlink="http://www.w3.org/1999/xlink" version="1.1" id="mdi-cancel" width="24" height="24" viewBox="0 0 24 24"><path d="M12,2A10,10 0 0,1 22,12A10,10 0 0,1 12,22A10,10 0 0,1 2,12A10,10 0 0,1 12,2M12,4A8,8 0 0,0 4,12C4,13.85 4.63,15.55 5.68,16.91L16.91,5.68C15.55,4.63 13.85,4 12,4M12,20A8,8 0 0,0 20,12C20,10.15 19.37,8.45 18.32,7.09L7.09,18.32C8.45,19.37 10.15,20 12,20Z" /></svg>
